lib/radiotmp/nrk-new-chat.svg

<svg width="24" height="24" viewBox="0 0 24 24" fill="none" xmlns="http://www.w3.org/2000/svg">
<path opacity="0.5" d="M13 3H1V20H7.52853L6.00001 22.9999H8.24466L9.77318 20H23V13H21V18H3V5H13V3Z" fill="black"/>
<path fill-rule="evenodd" clip-rule="evenodd" d="M20 3H18V6H15V8H18V11H20V8H23V6H20V3Z" fill="black"/>
</svg>

<svg xmlns="http://www.w3.org/2000/svg" viewBox="0 0 24 24"><path fill="#000" d="M13 3H1v17h6.529L6 23h2.245l1.528-3H23v-7h-2v5H3V5h10V3Z" opacity=".5"/><path fill="#000" fill-rule="evenodd" d="M20 3h-2v3h-3v2h3v3h2V8h3V6h-3V3Z" clip-rule="evenodd"/></svg>
